!!!COM: Fux, Johann Joseph
!!!OMD: Gradus ad Parnassum Exercise
!!!YEC: CC0 1.0 Universal (Public Domain). Mark Gotham and FourScoreAndMore.org waive all rights to this document.
**kern	**kern
*part2	*part1
*staff2	*staff1
*I"2	*I"1
*I'Pno	*I'Pno
!!LO:LB:g=z
*clefGv2	*clefG2
*k[]	*k[]
!!LO:TX:omd:t=
*M2/2	*M2/2
=271	=271
!	!LO:TX:a:t=Fig. 56; Species&colon; 3; Modal final&colon; d; Cantus firmus&colon; Upper
4D/	1d
4E/	.
4F/	.
4G/	.
=272	=272
4A/	1f
4D/	.
4A/	.
4B\	.
=273	=273
4c\	1e
4B\	.
4G/	.
4A/	.
=274	=274
4B\	1d
4A/	.
4G/	.
4F/	.
=275	=275
4E/	1g
4e\	.
4B\	.
4c\	.
=276	=276
4d\	1f
4A/	.
4D/	.
4E/	.
!!LO:LB:g=z
=277	=277
4F/	1a
4G/	.
4A/	.
4B\	.
=278	=278
4c\	1g
4d\	.
4e\	.
4c\	.
=279	=279
4d\	1f
4A/	.
4D/	.
4d\	.
=280	=280
4c#X\	1e
4A/	.
4B\	.
4c#\	.
=281	=281
1d	1d
==	==
*-	*-
!!!software: music21 v.9.7.1
!!!software: music21 v.9.7.1
!!!software: MuseScore 3.4.2
!!!RDF**kern: > = above
!!!RDF**kern: < = below
